202404-ahaslides-april/assets/images/1c.svg

<svg width="100" height="100" viewBox="0 0 100 100" fill="none" xmlns="http://www.w3.org/2000/svg">
<path fill-rule="evenodd" clip-rule="evenodd" d="M55.5696 39.483H72.1124V75.1034C72.1124 76.288 71.6387 77.4241 70.7957 78.2617C69.9527 79.0993 68.8093 79.5699 67.617 79.5699H31.6545C30.4623 79.5699 29.3189 79.0993 28.4758 78.2617C27.6328 77.4241 27.1592 76.288 27.1592 75.1034V61.3993H30.5925C30.2624 62.2306 30.0918 63.1181 30.0918 64.0156C30.0918 64.9626 30.2817 65.8984 30.6485 66.7688C31.0152 67.639 31.5504 68.4245 32.2198 69.0824C32.8889 69.7402 33.6789 70.2578 34.5428 70.6095C35.4064 70.9612 36.3294 71.1412 37.2597 71.1412C38.1899 71.1412 39.1129 70.9612 39.9766 70.6095C40.8404 70.2578 41.6304 69.7402 42.2995 69.0824L52.2362 59.3147L52.2719 59.2781C52.9026 58.6304 53.4061 57.8671 53.7524 57.027C54.1248 56.1621 54.3181 55.229 54.3181 54.2837C54.3181 53.3385 54.1248 52.4054 53.7524 51.5404C53.4061 50.7004 52.9026 49.937 52.2719 49.2894L52.2362 49.2528L42.2995 39.485C40.9494 38.1578 39.135 37.4263 37.2597 37.4263C35.3843 37.4263 33.5699 38.1578 32.2198 39.485C30.8669 40.8149 30.0918 42.6358 30.0918 44.5518C30.0918 45.4593 30.2657 46.3454 30.5925 47.1681H27.1592V25.9719C27.1592 24.7873 27.6328 23.6512 28.4758 22.8136C29.3189 21.9759 30.4623 21.5054 31.6545 21.5054H53.3219V37.2498C53.3219 37.8421 53.5587 38.4101 53.9803 38.8289C54.4018 39.2478 54.9735 39.483 55.5696 39.483ZM35.5024 62.2882L41.195 56.7167H27.1592H17.4594C16.803 56.7167 16.1735 56.4604 15.7093 56.0041C15.2451 55.5478 14.9844 54.929 14.9844 54.2837C14.9844 53.6385 15.2451 53.0196 15.7093 52.5634C16.1735 52.1071 16.803 51.8508 17.4594 51.8508H27.1592H41.195L35.5024 46.2792C35.0363 45.8211 34.7745 45.1997 34.7745 44.5518C34.7745 43.9039 35.0363 43.2826 35.5024 42.8244C35.9684 42.3663 36.6005 42.1089 37.2597 42.1089C37.2713 42.1089 37.2829 42.109 37.2945 42.1091C37.9411 42.118 38.5593 42.3743 39.0172 42.8244L48.9174 52.5563C49.1428 52.7877 49.3194 53.0605 49.4372 53.3592C49.5681 53.6504 49.6358 53.9653 49.6358 54.2837C49.6358 54.6021 49.5681 54.917 49.4372 55.2083C49.3194 55.5069 49.1428 55.7797 48.9174 56.0111L39.0172 65.743C38.7864 65.9699 38.5125 66.1498 38.2109 66.2726C37.9847 66.3647 37.7463 66.4232 37.5035 66.4468C37.4227 66.4546 37.3414 66.4585 37.2599 66.4585M36.9874 66.4438C36.7545 66.4186 36.5259 66.3611 36.3086 66.2726C36.0071 66.1498 35.7331 65.9699 35.5024 65.743C35.2716 65.5162 35.0885 65.2469 34.9636 64.9505C34.8388 64.6541 34.7745 64.3364 34.7745 64.0156C34.7745 63.6948 34.8388 63.3771 34.9636 63.0807C35.0885 62.7844 35.2716 62.5151 35.5024 62.2882M36.9874 66.4438C37.0776 66.4536 37.1685 66.4585 37.2597 66.4585ZM57.8173 35.0165V26.7088L66.5831 35.0165H57.8173Z" fill="#2F68DC"/>
</svg>

<svg xmlns="http://www.w3.org/2000/svg" width="100" height="100" fill="none" viewBox="0 0 100 100">
  <path fill="#2F68DC" fill-rule="evenodd" d="M55.57 39.483h16.542v35.62a4.453 4.453 0 0 1-1.316 3.159 4.51 4.51 0 0 1-3.179 1.308H31.654a4.51 4.51 0 0 1-3.178-1.308 4.452 4.452 0 0 1-1.317-3.159V61.4h3.434a7.089 7.089 0 0 0 1.627 7.683 7.204 7.204 0 0 0 10.08 0l9.936-9.767.036-.037a7.112 7.112 0 0 0 1.48-2.251 6.936 6.936 0 0 0 0-5.487 7.112 7.112 0 0 0-1.48-2.25l-.036-.037-9.936-9.768a7.19 7.19 0 0 0-5.04-2.059 7.19 7.19 0 0 0-5.04 2.059 7.105 7.105 0 0 0-2.128 5.067 7.1 7.1 0 0 0 .5 2.616H27.16V25.972c0-1.185.474-2.32 1.317-3.158a4.51 4.51 0 0 1 3.178-1.309h21.668V37.25c0 .592.237 1.16.658 1.579.422.419.994.654 1.59.654ZM35.502 62.288l5.693-5.571H17.459a2.497 2.497 0 0 1-1.75-.713 2.412 2.412 0 0 1-.725-1.72c0-.645.261-1.264.725-1.72a2.497 2.497 0 0 1 1.75-.713h23.736l-5.693-5.572a2.422 2.422 0 0 1-.727-1.727c0-.648.261-1.27.727-1.728a2.507 2.507 0 0 1 1.758-.715h.035a2.507 2.507 0 0 1 1.722.715l9.9 9.732c.226.232.402.505.52.803a2.254 2.254 0 0 1 0 1.85 2.427 2.427 0 0 1-.52.802l-9.9 9.732a2.488 2.488 0 0 1-1.514.704c-.08.008-.162.011-.243.011m-.273-.014a2.518 2.518 0 0 1-1.485-.701 2.409 2.409 0 0 1 0-3.455m1.485 4.156c.09.01.181.014.273.014Zm20.83-31.428V26.71l8.766 8.308h-8.766Z" clip-rule="evenodd"/>
</svg>
